X:1
T:Title
%%score { ( 1 4 ) | ( 2 3 ) }
L:1/8
M:3/4
K:D
V:1 treble nm="Grand Piano"
V:4 treble 
V:2 bass 
V:3 bass 
V:1
 z2 z2[Q:1/4=82] A2 | A>B AF [CF][CE] | D4 EF | G>F EF GB |[M:2/4] [EA]4 |[M:1/4] [EA]2 | %6
[M:3/4] [Ad]>[Ae] [^Ad][Ac] BA | c2 B2 G2 | F4[K:bass] z2 |[M:2/4] [F,D]4 |] %10
V:2
 z2 z2 [D,F,D]2 | [D,F,D]>[D,G,D] [D,F,D][D,A,D] [A,,A,][A,,G,] | [D,F,]4 [D,D]-[D,A,D] | %3
 [D,B,D]>[D,A,D] [D,G,D][D,A,D] [D,B,D][D,G,D] |[M:2/4] [C,G,]4 |[M:1/4] [G,C]2 | %6
[M:3/4] [F,D]>[F,D] [F,E][F,E] [F,DF][F,CE] | [^A,E]2 [B,D]2 [E,B,E]2 | A,4 z2 |[M:2/4] D,4 |] %10
V:3
 x6 | x6 | z2 z2 .G,2 | x6 |[M:2/4] x4 |[M:1/4] x2 |[M:3/4] x6 | G,4 z2 | D2 z2 A,,2 |[M:2/4] x4 |] %10
V:4
 x6 | x6 | x6 | x6 |[M:2/4] x4 |[M:1/4] x2 |[M:3/4] x6 | x6 | z2[K:bass] B,2 [G,CE]2 |[M:2/4] x4 |] %10

